X: 062191
T: Flowers of May
S: Treoir
D: Lough Gill Quartet, 1931
L: 1/8
M: 4/4
R: hornpipe
Q: 1/4=165
K: G
(3DEF | GABG ABcA | dgge dedc | (3Bcd BG ABAF | GABG DEFD |
 GABG ABcA | dgge dedc | BABd cAFA | DGGF G2 :|
ef | gfeg fddf | gfeg fddc | defg abag | f2d2 dedc |
B2 BG AF D2 | GABG ABcA | dgfd cAFA | DGGF G2 :|
